X:1
T:Reel Chteau Margaut
M:C
L:1/8
C:(c) Greg Anderson, 1 Oct 1999
R:Reel
N:The Ecole Municipale de la Musique de Talence is located in a beautiful
N:old chateau, the Chteau Margaut, and it was here that the girls and I
N:took music lessons. This reel developed one evening as I walked
N:through town on the way to my solfege class.
K:D
fe df e2 d2|Bc dB AF EF|DF (3FFF FG AF|EG ed cA de|
fe df e2 d2|Bc dB AF D2|FA (3AAA BG (3GGG|Ac ec d2 de:|
|:af (3fff df (3fff|gf ed c2 A2|FA (3AAA BG (3GGG|FA df e2 fg|
af (3fff df (3fff|gf ed c2 c2|dA FA BG (3GGG|1Ac ec d3 f:|2Ac ec d2 de||
